src/images/more.svg

<svg width="26" height="26" viewBox="0 0 26 26" fill="none" xmlns="http://www.w3.org/2000/svg">
<path d="M17.9582 10.6667C16.8323 10.6667 15.9165 11.5849 15.9165 12.7084C15.9165 13.8319 16.8312 14.75 17.9582 14.75C19.0828 14.75 19.9998 13.833 19.9998 12.7084C19.9998 11.5837 19.0828 10.6667 17.9582 10.6667ZM17.9582 13.5834C17.4752 13.5834 17.0832 13.1914 17.0832 12.7084C17.0832 12.2265 17.4763 11.8334 17.9582 11.8334C18.44 11.8334 18.8332 12.2254 18.8332 12.7084C18.8332 13.1902 18.4412 13.5834 17.9582 13.5834ZM12.7082 10.6667C11.5812 10.6667 10.6665 11.5849 10.6665 12.7084C10.6665 13.8319 11.5823 14.75 12.7082 14.75C13.834 14.75 14.7498 13.833 14.7498 12.7084C14.7498 11.5837 13.8352 10.6667 12.7082 10.6667ZM12.7082 13.5834C12.2252 13.5834 11.8332 13.1914 11.8332 12.7084C11.8332 12.2265 12.2263 11.8334 12.7082 11.8334C13.19 11.8334 13.5832 12.2254 13.5832 12.7084C13.5832 13.1902 13.1912 13.5834 12.7082 13.5834ZM7.45817 10.6667C6.33234 10.6667 5.4165 11.5849 5.4165 12.7084C5.4165 13.8319 6.33234 14.75 7.45817 14.75C8.58284 14.75 9.49984 13.833 9.49984 12.7084C9.49984 11.5837 8.58167 10.6667 7.45817 10.6667ZM7.45817 13.5834C6.97517 13.5834 6.58317 13.1914 6.58317 12.7084C6.58317 12.2265 6.97634 11.8334 7.45817 11.8334C7.94 11.8334 8.33317 12.2254 8.33317 12.7084C8.33317 13.1902 7.94117 13.5834 7.45817 13.5834Z" fill="black"/>
<path d="M12.7082 25.25C5.79217 25.25 0.166504 19.6244 0.166504 12.7084C0.166504 5.79235 5.79217 0.166687 12.7082 0.166687C19.6242 0.166687 25.2498 5.79235 25.2498 12.7084C25.2498 19.6244 19.6242 25.25 12.7082 25.25ZM12.7082 1.91669C6.75817 1.91669 1.9165 6.75835 1.9165 12.7084C1.9165 18.6584 6.75817 23.5 12.7082 23.5C18.6582 23.5 23.4998 18.6584 23.4998 12.7084C23.4998 6.75835 18.6582 1.91669 12.7082 1.91669Z" fill="black"/>
</svg>

<svg width="26" height="26" fill="none" xmlns="http://www.w3.org/2000/svg"><path d="M17.958 10.667a2.045 2.045 0 0 0-2.041 2.041c0 1.124.914 2.042 2.041 2.042A2.045 2.045 0 0 0 20 12.708a2.045 2.045 0 0 0-2.042-2.041Zm0 2.916a.875.875 0 1 1 0-1.75.875.875 0 0 1 0 1.75Zm-5.25-2.916a2.045 2.045 0 0 0-2.042 2.041c0 1.124.916 2.042 2.042 2.042a2.045 2.045 0 0 0 2.042-2.042 2.044 2.044 0 0 0-2.042-2.041Zm0 2.916a.875.875 0 1 1 0-1.75.875.875 0 0 1 0 1.75Zm-5.25-2.916a2.045 2.045 0 0 0-2.042 2.041c0 1.124.916 2.042 2.042 2.042A2.045 2.045 0 0 0 9.5 12.708a2.046 2.046 0 0 0-2.042-2.041Zm0 2.916a.875.875 0 1 1 0-1.75.875.875 0 0 1 0 1.75Z" fill="#000"/><path d="M12.708 25.25C5.792 25.25.167 19.624.167 12.708.167 5.792 5.792.167 12.708.167S25.25 5.792 25.25 12.708 19.624 25.25 12.708 25.25Zm0-23.333c-5.95 0-10.791 4.841-10.791 10.791S6.758 23.5 12.708 23.5 23.5 18.658 23.5 12.708 18.658 1.917 12.708 1.917Z" fill="#000"/></svg>
